src/symbols/alphanum/1F196.svg

<svg id="emoji" viewBox="0 0 72 72" xmlns="http://www.w3.org/2000/svg">
  <g id="grid">
    <path fill="#b3b3b3" d="M68,4V68H4V4H68m4-4H0V72H72V0Z"/>
    <path fill="none" stroke="#00a5ff" stroke-miterlimit="10" stroke-width="0.1" d="M12.923,10.9583H59.0769A1.9231,1.9231,0,0,1,61,12.8814V59.0352a1.9231,1.9231,0,0,1-1.9231,1.9231H12.9231A1.9231,1.9231,0,0,1,11,59.0352V12.8813A1.923,1.923,0,0,1,12.923,10.9583Z"/>
    <rect x="16" y="4" rx="2.2537" width="40" height="64" fill="none" stroke="#00a5ff" stroke-miterlimit="10" stroke-width="0.1"/>
    <rect x="16" y="4" rx="2.2537" width="40" height="64" transform="translate(72) rotate(90)" fill="none" stroke="#00a5ff" stroke-miterlimit="10" stroke-width="0.1"/>
    <circle cx="36" cy="36" r="29" fill="none" stroke="#00a5ff" stroke-miterlimit="10" stroke-width="0.1"/>
  </g>
  <g id="color">
    <g id="color-2">
      <path fill="#92d3f5" d="M59.0349,59h-46.07A.9679.9679,0,0,1,12,58.0349v-46.07A.9679.9679,0,0,1,12.9651,11h46.07A.9679.9679,0,0,1,60,11.9651v46.07A.9679.9679,0,0,1,59.0349,59Z"/>
    </g>
  </g>
  <g id="line">
    <g id="NG_Button">
      <path fill="none" stroke="#000" stroke-miterlimit="10" stroke-width="2" d="M59.0349,59.3333h-46.07A.9679.9679,0,0,1,12,58.3682v-46.07a.9679.9679,0,0,1,.9651-.9651h46.07A.9679.9679,0,0,1,60,12.2984v46.07A.9679.9679,0,0,1,59.0349,59.3333Z"/>
      <polyline fill="none" stroke="#000" stroke-linecap="round" stroke-linejoin="round" stroke-width="2" points="22 42.833 22 27.833 32.714 42.833 32.714 27.833"/>
      <path fill="none" stroke="#000" stroke-linecap="round" stroke-linejoin="round" stroke-width="2" d="M50.1964,29.1816a5.3366,5.3366,0,0,0-3.5535-1.3483h0a5.3572,5.3572,0,0,0-5.3572,5.3572v4.2857a5.3572,5.3572,0,0,0,5.3572,5.3571h0A5.3572,5.3572,0,0,0,52,37.4762V35.3053H47.7143"/>
    </g>
  </g>
</svg>

<svg viewBox="0 0 72 72" xmlns="http://www.w3.org/2000/svg"><path fill="#b3b3b3" d="M68 4v64H4V4h64m4-4H0v72h72V0z"/><path fill="none" stroke="#00a5ff" stroke-miterlimit="10" stroke-width=".1" d="M12.923 10.958h46.154A1.923 1.923 0 0161 12.881v46.154a1.923 1.923 0 01-1.923 1.923H12.923A1.923 1.923 0 0111 59.035V12.881a1.923 1.923 0 011.923-1.923z"/><rect x="16" y="4" rx="2.254" width="40" height="64" fill="none" stroke="#00a5ff" stroke-miterlimit="10" stroke-width=".1"/><rect x="16" y="4" rx="2.254" width="40" height="64" transform="rotate(90 36 36)" fill="none" stroke="#00a5ff" stroke-miterlimit="10" stroke-width=".1"/><circle cx="36" cy="36" r="29" fill="none" stroke="#00a5ff" stroke-miterlimit="10" stroke-width=".1"/><g stroke-linecap="round" stroke-miterlimit="10" stroke-width="6" stroke="#fff" fill="none" stroke-linejoin="round"><path d="M59.035 59.333h-46.07a.968.968 0 01-.965-.965v-46.07a.968.968 0 01.965-.965h46.07a.968.968 0 01.965.965v46.07a.968.968 0 01-.965.965z"/><path d="M22 42.833v-15l10.714 15v-15m17.482 1.349a5.337 5.337 0 00-3.553-1.349h0a5.357 5.357 0 00-5.357 5.358v4.285a5.357 5.357 0 005.357 5.357h0A5.357 5.357 0 0052 37.476v-2.17h-4.286"/></g><path fill="#92d3f5" d="M59.035 59h-46.07a.968.968 0 01-.965-.965v-46.07a.968.968 0 01.965-.965h46.07a.968.968 0 01.965.965v46.07a.968.968 0 01-.965.965z"/><g fill="none" stroke="#000" stroke-width="2"><path stroke-miterlimit="10" d="M59.035 59.333h-46.07a.968.968 0 01-.965-.965v-46.07a.968.968 0 01.965-.965h46.07a.968.968 0 01.965.965v46.07a.968.968 0 01-.965.965z"/><path stroke-linecap="round" stroke-linejoin="round" d="M22 42.833v-15l10.714 15v-15m17.482 1.349a5.337 5.337 0 00-3.553-1.349h0a5.357 5.357 0 00-5.357 5.358v4.285a5.357 5.357 0 005.357 5.357h0A5.357 5.357 0 0052 37.476v-2.17h-4.286"/></g></svg>
